frontend/public/background-light.svg

<?xml version="1.0"?>
<svg width="1920" height="1080" xmlns="http://www.w3.org/2000/svg" xmlns:svg="http://www.w3.org/2000/svg" version="1.1">
 <g class="layer" display="inline">
  <title>Layer 1</title>
  <rect fill="#f2f2f2" height="1080" id="svg_7" width="1920" x="0" y="0"/>
  <path d="m0,969l26.7,-3.2c26.6,-3.1 80,-9.5 133.3,-17.1c53.3,-7.7 106.7,-16.7 160,-27.7c53.3,-11 106.7,-24 160,-13c53.3,11 106.7,46 160,48.8c53.3,2.9 106.7,-26.5 160,-41.6c53.3,-15.2 106.7,-16.2 160,-4.9c53.3,11.4 106.7,35 160,52.4c53.3,17.3 106.7,28.3 160,27.5c53.3,-0.9 106.7,-13.5 160,-32c53.3,-18.5 106.7,-42.9 160,-49.7c53.3,-6.8 106.7,3.8 160,10.2c53.3,6.3 106.7,8.3 133.3,9.3l26.7,1l0,152l-26.7,0c-26.6,0 -80,0 -133.3,0c-53.3,0 -106.7,0 -160,0c-53.3,0 -106.7,0 -160,0c-53.3,0 -106.7,0 -160,0c-53.3,0 -106.7,0 -160,0c-53.3,0 -106.7,0 -160,0c-53.3,0 -106.7,0 -160,0c-53.3,0 -106.7,0 -160,0c-53.3,0 -106.7,0 -160,0c-53.3,0 -106.7,0 -160,0c-53.3,0 -106.7,0 -160,0c-53.3,0 -106.7,0 -133.3,0l-26.7,0l0,-112z" fill="#ffffff" id="svg_1"/>
  <path d="m0,950l26.7,5.2c26.6,5.1 80,15.5 133.3,21.6c53.3,6.2 106.7,8.2 160,0.9c53.3,-7.4 106.7,-24 160,-19.7c53.3,4.3 106.7,29.7 160,40c53.3,10.3 106.7,5.7 160,-7.2c53.3,-12.8 106.7,-33.8 160,-40.1c53.3,-6.4 106.7,2 160,17c53.3,15 106.7,36.6 160,32.3c53.3,-4.3 106.7,-34.7 160,-46c53.3,-11.3 106.7,-3.7 160,4.8c53.3,8.5 106.7,17.9 160,8c53.3,-9.8 106.7,-38.8 133.3,-53.3l26.7,-14.5l0,182l-26.7,0c-26.6,0 -80,0 -133.3,0c-53.3,0 -106.7,0 -160,0c-53.3,0 -106.7,0 -160,0c-53.3,0 -106.7,0 -160,0c-53.3,0 -106.7,0 -160,0c-53.3,0 -106.7,0 -160,0c-53.3,0 -106.7,0 -160,0c-53.3,0 -106.7,0 -160,0c-53.3,0 -106.7,0 -160,0c-53.3,0 -106.7,0 -160,0c-53.3,0 -106.7,0 -160,0c-53.3,0 -106.7,0 -133.3,0l-26.7,0l0,-131z" fill="#ffdde2" id="svg_2"/>
  <path d="m0,933l26.7,-0.7c26.6,-0.6 80,-2 133.3,8.2c53.3,10.2 106.7,31.8 160,35.2c53.3,3.3 106.7,-11.7 160,-12.2c53.3,-0.5 106.7,13.5 160,19.7c53.3,6.1 106.7,4.5 160,2.5c53.3,-2 106.7,-4.4 160,-6.2c53.3,-1.8 106.7,-3.2 160,-3.2c53.3,0 106.7,1.4 160,0c53.3,-1.3 106.7,-5.3 160,-12.8c53.3,-7.5 106.7,-18.5 160,-12.5c53.3,6 106.7,29 160,28.2c53.3,-0.9 106.7,-25.5 133.3,-37.9l26.7,-12.3l0,152l-26.7,0c-26.6,0 -80,0 -133.3,0c-53.3,0 -106.7,0 -160,0c-53.3,0 -106.7,0 -160,0c-53.3,0 -106.7,0 -160,0c-53.3,0 -106.7,0 -160,0c-53.3,0 -106.7,0 -160,0c-53.3,0 -106.7,0 -160,0c-53.3,0 -106.7,0 -160,0c-53.3,0 -106.7,0 -160,0c-53.3,0 -106.7,0 -160,0c-53.3,0 -106.7,0 -160,0c-53.3,0 -106.7,0 -133.3,0l-26.7,0l0,-148z" fill="#ffbbc6" id="svg_3"/>
  <path d="m0,1026l26.7,0c26.6,0 80,0 133.3,-4.8c53.3,-4.9 106.7,-14.5 160,-21c53.3,-6.5 106.7,-9.9 160,-14c53.3,-4.2 106.7,-9.2 160,-8c53.3,1.1 106.7,8.5 160,19.5c53.3,11 106.7,25.6 160,28.8c53.3,3.2 106.7,-5.2 160,-7c53.3,-1.8 106.7,2.8 160,-5.5c53.3,-8.3 106.7,-29.7 160,-30.5c53.3,-0.8 106.7,18.8 160,28.3c53.3,9.5 106.7,8.9 160,3.9c53.3,-5 106.7,-14.4 133.3,-19l26.7,-4.7l0,89l-26.7,0c-26.6,0 -80,0 -133.3,0c-53.3,0 -106.7,0 -160,0c-53.3,0 -106.7,0 -160,0c-53.3,0 -106.7,0 -160,0c-53.3,0 -106.7,0 -160,0c-53.3,0 -106.7,0 -160,0c-53.3,0 -106.7,0 -160,0c-53.3,0 -106.7,0 -160,0c-53.3,0 -106.7,0 -160,0c-53.3,0 -106.7,0 -160,0c-53.3,0 -106.7,0 -160,0c-53.3,0 -106.7,0 -133.3,0l-26.7,0l0,-55z" fill="#ff98ab" id="svg_4"/>
  <path d="m0,990l26.7,2c26.6,2 80,6 133.3,15.2c53.3,9.1 106.7,23.5 160,29.5c53.3,6 106.7,3.6 160,3.3c53.3,-0.3 106.7,1.3 160,-7.2c53.3,-8.5 106.7,-27.1 160,-35.3c53.3,-8.2 106.7,-5.8 160,0.8c53.3,6.7 106.7,17.7 160,29.5c53.3,11.9 106.7,24.5 160,27c53.3,2.5 106.7,-5.1 160,-16.8c53.3,-11.7 106.7,-27.3 160,-33.5c53.3,-6.2 106.7,-2.8 160,8.3c53.3,11.2 106.7,30.2 133.3,39.7l26.7,9.5l0,19l-26.7,0c-26.6,0 -80,0 -133.3,0c-53.3,0 -106.7,0 -160,0c-53.3,0 -106.7,0 -160,0c-53.3,0 -106.7,0 -160,0c-53.3,0 -106.7,0 -160,0c-53.3,0 -106.7,0 -160,0c-53.3,0 -106.7,0 -160,0c-53.3,0 -106.7,0 -160,0c-53.3,0 -106.7,0 -160,0c-53.3,0 -106.7,0 -160,0c-53.3,0 -106.7,0 -160,0c-53.3,0 -106.7,0 -133.3,0l-26.7,0l0,-91z" fill="#ff7290" id="svg_5"/>
  <path d="m0,1019l26.7,0.8c26.6,0.9 80,2.5 133.3,10.5c53.3,8 106.7,22.4 160,25.2c53.3,2.8 106.7,-5.8 160,-5.5c53.3,0.3 106.7,9.7 160,12.3c53.3,2.7 106.7,-1.3 160,-4.5c53.3,-3.1 106.7,-5.5 160,-6.1c53.3,-0.7 106.7,0.3 160,3.8c53.3,3.5 106.7,9.5 160,7.2c53.3,-2.4 106.7,-13 160,-17.2c53.3,-4.2 106.7,-1.8 160,0.2c53.3,2 106.7,3.6 160,2.5c53.3,-1.2 106.7,-5.2 133.3,-7.2l26.7,-2l0,42l-26.7,0c-26.6,0 -80,0 -133.3,0c-53.3,0 -106.7,0 -160,0c-53.3,0 -106.7,0 -160,0c-53.3,0 -106.7,0 -160,0c-53.3,0 -106.7,0 -160,0c-53.3,0 -106.7,0 -160,0c-53.3,0 -106.7,0 -160,0c-53.3,0 -106.7,0 -160,0c-53.3,0 -106.7,0 -160,0c-53.3,0 -106.7,0 -160,0c-53.3,0 -106.7,0 -160,0c-53.3,0 -106.7,0 -133.3,0l-26.7,0l0,-62z" fill="#fb4376" id="svg_6"/>
 </g>
</svg>

<svg id="visual" viewBox="0 0 1920 1080" width="1920" height="1080" xmlns="http://www.w3.org/2000/svg" xmlns:xlink="http://www.w3.org/1999/xlink" version="1.1"><path d="M0 969L26.7 965.8C53.3 962.7 106.7 956.3 160 948.7C213.3 941 266.7 932 320 921C373.3 910 426.7 897 480 908C533.3 919 586.7 954 640 956.8C693.3 959.7 746.7 930.3 800 915.2C853.3 900 906.7 899 960 910.3C1013.3 921.7 1066.7 945.3 1120 962.7C1173.3 980 1226.7 991 1280 990.2C1333.3 989.3 1386.7 976.7 1440 958.2C1493.3 939.7 1546.7 915.3 1600 908.5C1653.3 901.7 1706.7 912.3 1760 918.7C1813.3 925 1866.7 927 1893.3 928L1920 929L1920 1081L1893.3 1081C1866.7 1081 1813.3 1081 1760 1081C1706.7 1081 1653.3 1081 1600 1081C1546.7 1081 1493.3 1081 1440 1081C1386.7 1081 1333.3 1081 1280 1081C1226.7 1081 1173.3 1081 1120 1081C1066.7 1081 1013.3 1081 960 1081C906.7 1081 853.3 1081 800 1081C746.7 1081 693.3 1081 640 1081C586.7 1081 533.3 1081 480 1081C426.7 1081 373.3 1081 320 1081C266.7 1081 213.3 1081 160 1081C106.7 1081 53.3 1081 26.7 1081L0 1081Z" fill="#ffffff"></path><path d="M0 950L26.7 955.2C53.3 960.3 106.7 970.7 160 976.8C213.3 983 266.7 985 320 977.7C373.3 970.3 426.7 953.7 480 958C533.3 962.3 586.7 987.7 640 998C693.3 1008.3 746.7 1003.7 800 990.8C853.3 978 906.7 957 960 950.7C1013.3 944.3 1066.7 952.7 1120 967.7C1173.3 982.7 1226.7 1004.3 1280 1000C1333.3 995.7 1386.7 965.3 1440 954C1493.3 942.7 1546.7 950.3 1600 958.8C1653.3 967.3 1706.7 976.7 1760 966.8C1813.3 957 1866.7 928 1893.3 913.5L1920 899L1920 1081L1893.3 1081C1866.7 1081 1813.3 1081 1760 1081C1706.7 1081 1653.3 1081 1600 1081C1546.7 1081 1493.3 1081 1440 1081C1386.7 1081 1333.3 1081 1280 1081C1226.7 1081 1173.3 1081 1120 1081C1066.7 1081 1013.3 1081 960 1081C906.7 1081 853.3 1081 800 1081C746.7 1081 693.3 1081 640 1081C586.7 1081 533.3 1081 480 1081C426.7 1081 373.3 1081 320 1081C266.7 1081 213.3 1081 160 1081C106.7 1081 53.3 1081 26.7 1081L0 1081Z" fill="#ffdde2"></path><path d="M0 933L26.7 932.3C53.3 931.7 106.7 930.3 160 940.5C213.3 950.7 266.7 972.3 320 975.7C373.3 979 426.7 964 480 963.5C533.3 963 586.7 977 640 983.2C693.3 989.3 746.7 987.7 800 985.7C853.3 983.7 906.7 981.3 960 979.5C1013.3 977.7 1066.7 976.3 1120 976.3C1173.3 976.3 1226.7 977.7 1280 976.3C1333.3 975 1386.7 971 1440 963.5C1493.3 956 1546.7 945 1600 951C1653.3 957 1706.7 980 1760 979.2C1813.3 978.3 1866.7 953.7 1893.3 941.3L1920 929L1920 1081L1893.3 1081C1866.7 1081 1813.3 1081 1760 1081C1706.7 1081 1653.3 1081 1600 1081C1546.7 1081 1493.3 1081 1440 1081C1386.7 1081 1333.3 1081 1280 1081C1226.7 1081 1173.3 1081 1120 1081C1066.7 1081 1013.3 1081 960 1081C906.7 1081 853.3 1081 800 1081C746.7 1081 693.3 1081 640 1081C586.7 1081 533.3 1081 480 1081C426.7 1081 373.3 1081 320 1081C266.7 1081 213.3 1081 160 1081C106.7 1081 53.3 1081 26.7 1081L0 1081Z" fill="#ffbbc6"></path><path d="M0 1026L26.7 1026C53.3 1026 106.7 1026 160 1021.2C213.3 1016.3 266.7 1006.7 320 1000.2C373.3 993.7 426.7 990.3 480 986.2C533.3 982 586.7 977 640 978.2C693.3 979.3 746.7 986.7 800 997.7C853.3 1008.7 906.7 1023.3 960 1026.5C1013.3 1029.7 1066.7 1021.3 1120 1019.5C1173.3 1017.7 1226.7 1022.3 1280 1014C1333.3 1005.7 1386.7 984.3 1440 983.5C1493.3 982.7 1546.7 1002.3 1600 1011.8C1653.3 1021.3 1706.7 1020.7 1760 1015.7C1813.3 1010.7 1866.7 1001.3 1893.3 996.7L1920 992L1920 1081L1893.3 1081C1866.7 1081 1813.3 1081 1760 1081C1706.7 1081 1653.3 1081 1600 1081C1546.7 1081 1493.3 1081 1440 1081C1386.7 1081 1333.3 1081 1280 1081C1226.7 1081 1173.3 1081 1120 1081C1066.7 1081 1013.3 1081 960 1081C906.7 1081 853.3 1081 800 1081C746.7 1081 693.3 1081 640 1081C586.7 1081 533.3 1081 480 1081C426.7 1081 373.3 1081 320 1081C266.7 1081 213.3 1081 160 1081C106.7 1081 53.3 1081 26.7 1081L0 1081Z" fill="#ff98ab"></path><path d="M0 990L26.7 992C53.3 994 106.7 998 160 1007.2C213.3 1016.3 266.7 1030.7 320 1036.7C373.3 1042.7 426.7 1040.3 480 1040C533.3 1039.7 586.7 1041.3 640 1032.8C693.3 1024.3 746.7 1005.7 800 997.5C853.3 989.3 906.7 991.7 960 998.3C1013.3 1005 1066.7 1016 1120 1027.8C1173.3 1039.7 1226.7 1052.3 1280 1054.8C1333.3 1057.3 1386.7 1049.7 1440 1038C1493.3 1026.3 1546.7 1010.7 1600 1004.5C1653.3 998.3 1706.7 1001.7 1760 1012.8C1813.3 1024 1866.7 1043 1893.3 1052.5L1920 1062L1920 1081L1893.3 1081C1866.7 1081 1813.3 1081 1760 1081C1706.7 1081 1653.3 1081 1600 1081C1546.7 1081 1493.3 1081 1440 1081C1386.7 1081 1333.3 1081 1280 1081C1226.7 1081 1173.3 1081 1120 1081C1066.7 1081 1013.3 1081 960 1081C906.7 1081 853.3 1081 800 1081C746.7 1081 693.3 1081 640 1081C586.7 1081 533.3 1081 480 1081C426.7 1081 373.3 1081 320 1081C266.7 1081 213.3 1081 160 1081C106.7 1081 53.3 1081 26.7 1081L0 1081Z" fill="#ff7290"></path><path d="M0 1019L26.7 1019.8C53.3 1020.7 106.7 1022.3 160 1030.3C213.3 1038.3 266.7 1052.7 320 1055.5C373.3 1058.3 426.7 1049.7 480 1050C533.3 1050.3 586.7 1059.7 640 1062.3C693.3 1065 746.7 1061 800 1057.8C853.3 1054.7 906.7 1052.3 960 1051.7C1013.3 1051 1066.7 1052 1120 1055.5C1173.3 1059 1226.7 1065 1280 1062.7C1333.3 1060.3 1386.7 1049.7 1440 1045.5C1493.3 1041.3 1546.7 1043.7 1600 1045.7C1653.3 1047.7 1706.7 1049.3 1760 1048.2C1813.3 1047 1866.7 1043 1893.3 1041L1920 1039L1920 1081L1893.3 1081C1866.7 1081 1813.3 1081 1760 1081C1706.7 1081 1653.3 1081 1600 1081C1546.7 1081 1493.3 1081 1440 1081C1386.7 1081 1333.3 1081 1280 1081C1226.7 1081 1173.3 1081 1120 1081C1066.7 1081 1013.3 1081 960 1081C906.7 1081 853.3 1081 800 1081C746.7 1081 693.3 1081 640 1081C586.7 1081 533.3 1081 480 1081C426.7 1081 373.3 1081 320 1081C266.7 1081 213.3 1081 160 1081C106.7 1081 53.3 1081 26.7 1081L0 1081Z" fill="#fb4376"></path></svg>
